X:1
T:Title
%%score { ( 1 4 ) | ( 2 3 ) }
L:1/8
M:4/4
K:D
V:1 treble nm="Grand Piano"
V:4 treble 
V:2 bass 
V:3 bass 
V:1
 z4 z2[Q:1/4=100] [A,FA][A,EG] | [A,DF] [DFA]2 [DGB] [DFA]2 [A,DF]2 | %2
 [G,CE] [F,D]2[K:treble] [A,CE] [A,DF]2 [A,DF][A,EG] | [DFA] [DGB]2 [DFA] [A,DF]2[K:bass] [F,D]2 | %4
 [A,CE]6[K:treble] [A,CA][A,EG] | [A,DF] [DFA]2 [DGB] [DFA]2 [A,DF]2 | %6
 [G,CE] [F,D]2[K:treble] [A,CE] [A,DF]2 [A,D][B,DE] | [DF] [DFA]2 [EG] [A,DF]2[K:bass] [G,CE]2 | %8
[M:3/4] [F,D]6 |[M:1/4][K:treble] [A,DF][A,EG] |[M:4/4] [FA] F2 A [Fd]2 [Ac]2 | [GB]6 z2 | %12
 B B2 B [E^Ge]2 [EBd]2 | [Ac]6 z2 | [Fd] [Fd]2 [GB] [FA]2 [FA][FA] | [GB] [Bd]2 [GB] [FA]2 DE | %16
 F A2 G [DF]2 [CE]2 |[M:3/4] D6 |] %18
V:2
 z4 z2 D,D, | D, D,2 D, D,2 D,2 | A,, A,,2 A,, D,2 D,D, | D, D,2 D, D,2 D,2 | B,,6 A,,A,, | %5
 D, D,2 D, D,2 D,2 | A,, A,,2 A,, D,2 F,G, | A, A,2 A, A,,2 A,,2 |[M:3/4] D,6 |[M:1/4] D,D, | %10
[M:4/4] z[K:treble] D2 F[K:bass] [D,A,]2 [D,D]2 | [G,D]2 G,2 G,2[K:treble] [G,DG][G,DG] | %12
 G G2 G[K:bass] E,2 E,2 | A,2 A,2 A,2 [A,C][A,C] | [D,D] [D,D]2 [D,D] [D,D]2 [D,D][D,D] | %15
 [G,D] [G,D]2 [G,D] [D,D]2 [F,A,][K:treble][G,B,D] | %16
 [A,D] [A,DF]2[K:bass] [A,E] [A,,A,]2 [A,,G,]2 |[M:3/4] [D,F,]6 |] %18
V:3
 x8 | x8 | x8 | x8 | x8 | x8 | x8 | x8 |[M:3/4] x6 |[M:1/4] x2 | %10
[M:4/4] [D,A,]4[K:treble][K:bass] z4 | x6[K:treble] x2 | [G,D]4[K:bass] z4 | x8 | x8 | %15
 x7[K:treble] x | x3[K:bass] x5 |[M:3/4] x6 |] %18
V:4
 x8 | x8 | x3[K:treble] x5 | x6[K:bass] x2 | x6[K:treble] x2 | x8 | x3[K:treble] x5 | %7
 x6[K:bass] x2 |[M:3/4] x6 |[M:1/4][K:treble] x2 |[M:4/4] x8 | z2 D2 D2 BB | x8 | E2 E2 E2 AA | %14
 x8 | x8 | x8 |[M:3/4] x6 |] %18

